X: 20
T: Down the Snow Capped Hill
C: Armand Aromin
H: 1/23/05
M: 6/8
L: 1/8
R: Jig
K: Gmaj
D || G3 AGA | BGE GED | G3 AGA | B3 D3 |
G3 AGA | BGE GED | BAG AGF |1 G3 G2 D :|2 G3 G2 A ||
B3 BAG | A3 AGF | G3 GFE | F3 FED |
E3 EDE | DEF G2 A | BAG AGF |1 G3 G2 A :|2 G3 G2 D |]
